src/app/assets/icons/contacts.svg

<svg width="24" height="24" viewBox="0 0 24 24" fill="none" xmlns="http://www.w3.org/2000/svg">
<path d="M5 23C4.71667 23 4.47917 22.9042 4.2875 22.7125C4.09583 22.5208 4 22.2833 4 22C4 21.7167 4.09583 21.4792 4.2875 21.2875C4.47917 21.0958 4.71667 21 5 21H19C19.2833 21 19.5208 21.0958 19.7125 21.2875C19.9042 21.4792 20 21.7167 20 22C20 22.2833 19.9042 22.5208 19.7125 22.7125C19.5208 22.9042 19.2833 23 19 23H5ZM5 3C4.71667 3 4.47917 2.90417 4.2875 2.7125C4.09583 2.52083 4 2.28333 4 2C4 1.71667 4.09583 1.47917 4.2875 1.2875C4.47917 1.09583 4.71667 1 5 1H19C19.2833 1 19.5208 1.09583 19.7125 1.2875C19.9042 1.47917 20 1.71667 20 2C20 2.28333 19.9042 2.52083 19.7125 2.7125C19.5208 2.90417 19.2833 3 19 3H5ZM12 13C12.8333 13 13.5417 12.7083 14.125 12.125C14.7083 11.5417 15 10.8333 15 10C15 9.16667 14.7083 8.45833 14.125 7.875C13.5417 7.29167 12.8333 7 12 7C11.1667 7 10.4583 7.29167 9.875 7.875C9.29167 8.45833 9 9.16667 9 10C9 10.8333 9.29167 11.5417 9.875 12.125C10.4583 12.7083 11.1667 13 12 13ZM4 20C3.45 20 2.97917 19.8042 2.5875 19.4125C2.19583 19.0208 2 18.55 2 18V6C2 5.45 2.19583 4.97917 2.5875 4.5875C2.97917 4.19583 3.45 4 4 4H20C20.55 4 21.0208 4.19583 21.4125 4.5875C21.8042 4.97917 22 5.45 22 6V18C22 18.55 21.8042 19.0208 21.4125 19.4125C21.0208 19.8042 20.55 20 20 20H4ZM5.75 18C6.5 17.0667 7.40833 16.3333 8.475 15.8C9.54167 15.2667 10.7167 15 12 15C13.2833 15 14.4583 15.2667 15.525 15.8C16.5917 16.3333 17.5 17.0667 18.25 18H20V6H4V18H5.75ZM8.7 18H15.3C14.8167 17.6667 14.2958 17.4167 13.7375 17.25C13.1792 17.0833 12.6 17 12 17C11.4 17 10.8208 17.0833 10.2625 17.25C9.70417 17.4167 9.18333 17.6667 8.7 18ZM12 11C11.7167 11 11.4792 10.9042 11.2875 10.7125C11.0958 10.5208 11 10.2833 11 10C11 9.71667 11.0958 9.47917 11.2875 9.2875C11.4792 9.09583 11.7167 9 12 9C12.2833 9 12.5208 9.09583 12.7125 9.2875C12.9042 9.47917 13 9.71667 13 10C13 10.2833 12.9042 10.5208 12.7125 10.7125C12.5208 10.9042 12.2833 11 12 11Z" fill="currentColor"/>
</svg>

<svg xmlns="http://www.w3.org/2000/svg" width="24" height="24" fill="none"><path fill="currentColor" d="M5 23a.97.97 0 0 1-.713-.288A.97.97 0 0 1 4 22q0-.424.287-.712A.97.97 0 0 1 5 21h14q.424 0 .712.288.288.287.288.712 0 .424-.288.712A.97.97 0 0 1 19 23zM5 3a.97.97 0 0 1-.713-.288A.97.97 0 0 1 4 2q0-.424.287-.712A.97.97 0 0 1 5 1h14q.424 0 .712.288Q20 1.575 20 2q0 .424-.288.712A.97.97 0 0 1 19 3zm7 10q1.25 0 2.125-.875A2.9 2.9 0 0 0 15 10q0-1.25-.875-2.125A2.9 2.9 0 0 0 12 7q-1.25 0-2.125.875A2.9 2.9 0 0 0 9 10q0 1.25.875 2.125A2.9 2.9 0 0 0 12 13m-8 7q-.824 0-1.412-.587A1.93 1.93 0 0 1 2 18V6q0-.824.587-1.412A1.93 1.93 0 0 1 4 4h16q.824 0 1.413.588Q22 5.175 22 6v12q0 .824-.587 1.413A1.93 1.93 0 0 1 20 20zm1.75-2a8.1 8.1 0 0 1 2.725-2.2q1.6-.8 3.525-.8t3.525.8A8.1 8.1 0 0 1 18.25 18H20V6H4v12zm2.95 0h6.6a5.5 5.5 0 0 0-1.562-.75A6 6 0 0 0 12 17q-.9 0-1.738.25A5.5 5.5 0 0 0 8.7 18m3.3-7a.97.97 0 0 1-.713-.287A.97.97 0 0 1 11 10q0-.424.287-.713A.97.97 0 0 1 12 9q.424 0 .713.287Q13 9.576 13 10t-.287.713A.97.97 0 0 1 12 11"/></svg>
